X:362
T:B362-  Packington's Pound
S:(1st/3)
Q:1/4=120
L:1/4
M:3/4
K:Fm
F3/2G/A|G=EC|F3/2G/A|G=EC|\
c3/2d/c|BGE|FAG|F3:|\
ce=d|c3|ce=d|c3|\
c/=d/ed|c/=d/ e/c/d|c/=d/ e/f/d|c3|:\
c3/2d/c|BGE|FGA|G=EC|\
c=de|=dBG|cCC|F3:|]

